X: 4
T: Richard Deasy's March
Z: ceolachan
S: https://thesession.org/tunes/5049#setting17387
R: barndance
M: 4/4
L: 1/8
K: Edor
G2 E^D E>FGA | BE^GB ef/e/ dB | A2 F>^E F2 D/=E/F/G/ | AD E/F/G/A/ de/d/ =cA |G2 E>^D EFGA | Bc d/c/B e2 f>e | dBA>^G A=cBA | G2 E>^D E2 :|B2 e>f ed B/A/^G | B>^GEF =G2 F>G | Adce d>e f/e/d/c/ | dBAF D2 B>A |G2 E>^D E2 F/G/A | BcdB e2 f>e | dBA^G A=cBA | G2 E>^D E2 ^GA |B2 d/e/f e2 d/c/B/A/ | B^GEF =GA/G/ F>G | Ad c/d/e d>ef>e | dBAF D3 F |G2 E/F/G/A/ G>FGB | A2 ^G>A Bcd<B | edB^G A>=cB<A | G2 E2 E2 |]
